X:85
T:Daphne Quadrill,La. JGi.085
O:Tealby,Lincolnshire
M:6/8
L:1/8
Q:3/8=120
S:Joshua Gibbons MS,1823,Tealby,Lincs.
R:quadrille
Z:VMP/R.Greig, 2009
K:G
d|d2B gec|d2B GAB|cBc edc|c3{dc}B2d|
d2B gec|d2B GAB|BAe edF|G3-G3:|
|:B|A2Ae2d|(G3A3)|B2AB2d|B2{cB}A2B|
A2Ae2d|G3A3|B2AB2^c|d3 DFA|
dAd fed|d2^c Acd|eAg gfe|e2df2f|
g2ge2e|a3d2f|B2ge2^c|d3″DC”d3:|

